X:154
T: EINST LEBT ICH SO GLUECKLICH
N: E0737
O: Europa, Mitteleuropa, Deutschland, Hessen, Oberhessen; Nassau
R: Liebes - Lied, Leid, Klage, Tod
M: 3/4
L: 1/8
K: Eb
EF | G2G2FG | A2A2
FG | Acc2cB | B4
EG | B2B2cB | BAF2
B2 | d3cBA | G4
EG | B2B2cB | BAF2
B2 | d3cBA | G4

@@@ Tune index: 4467
